!!!OTL: Die Geburt im Walde.
!!!OTL-incipit: Es gingen zwei Verliebte durch einen tiefen Wald;
!!!ODT: 1909 (vor)
!!!ARE: Europa, Mitteleuropa, Deutschland (BRD), Pfalz
!!!YOR: 1, S. 72
!!    1909 aufgezeichnet (vor)
!!!SCT: Q0007H
!!!TXL: @@DE
!!!YEM: Copyright 1995, estate of Helmut Schaffrath.
**kern	**text
*ICvox	*
*M3/4	*
*k[f#]	*
*G:	*
!LO:TX:a:t=Neuere Melodiegruppe.	!
{4d	Es
=1	=1
4.g	gin-
8f#	-gen
8g	ʒwei
8b	Ver-
=2	=2
4.a	-lieb-
8g	-te
4a	durch
=3	=3
4.b	ei-
8a	-nen
8b	tie-
8cc	-fen
=4	=4
4a	Wald,
4r}	.
{8gL	ſie
8bJ	.
=5	=5
4.dd	fan-
8dd	-den
8dd	ei-
8ee	-nen
=6	=6
4.dd	Brun-
8cc	-nen,
4b	war
=7	=7
4cc	tief
4b	und
4a	war
=8	=8
4g	kalt.
4r}	.
{8gL	ſie
8bJ	.
=9	=9
4.dd	fan-
8dd	-den
8dd	ei-
8ee	-nen
=10	=10
4.dd	Brun-
8cc	-nen,
4b	war
=11	=11
4cc	tief
4b	und
4a	war
=12	=12
4g	kalt.
4r}	.
==	==
!!!AGN: Ballade, Geburt, Tod, Moral
!! Melodievergleich zu Q0007E.
!!!ONB: ESAC (Essen Associative Code) Database: BALLADE
!!!AMT: simple triple
!!!AIN: vox
!!!EED: Helmut Schaffrath
!!!EEV: 1.0
!!!source: Deutsche Volkslieder mit ihren Melodien. Balladen. Herausgegeben vom Deutschen Volksliedarchiv. Erster Band Balladen. Berlin und Leipzig 1935.
!!!page: 72
!!!ENC: Anna Maria Matuszewska
!!!EEV: 2025/02/13
*-	*-
